X:1
T:Kingsfold
T:Kingsfold
T:Courtesy of the Cyber Hymnal (http://www.cyberhymnal.org)
T:Courtesy of the Cyber Hymnal (http://www.cyberhymnal.org)
Z:Courtesy of the Cyber Hymnal (http://www.cyberhymnal.org)
%%score { ( 1 2 ) ( 3 4 ) }
L:1/8
Q:1/4=112
M:1/4
K:G
V:1 treble nm="P1"
V:2 treble 
V:3 bass nm="P2"
V:4 bass 
V:1
"^Editor: John Henry Fowler""^( Revision: 11-21-2007 )" (GF) |[M:4/4] E2 E2 E2 D2 | G2 G2 A2 (GA) | %3
 B2"^( 1906 )" B2 (AG) E2 | D6 (GF) | E2"^Ralph Vaughan Williams" E2 E2"^( 1872 - 1958 )" D2 | %6
 G2 G2 A2 (GA) | B2 B2 (AG) E2 | E6 (Bc) | d2 B2 (BA) G2 | A2 A2 B4 | B2 (BA) G2 E2 | D6 (GF) | %13
 E2 E2 C2 (EF) | G2 G2 A2 (GA) | B2 B2 (AG) E2 |[M:3/4] [B,E]6 |] %17
V:2
 E2 |[M:4/4] B,2 B,2 C2 A,2 | D2 B,2 D2 DF | G2 G2 E2 C2 | A,6 D2 | E2 C2 (CB,) A,2 | %6
 D2 ^C2 D2 E=C | B,2 D2 C2 C2 | B,6 E2 | F2 F2 GD D2 | E2 D2 D4 | G2 GF D2 (CB,) | A,6 D2 | %13
 D2 C2 (ED) D2 | D2 (D^C) D2 D=C | B,2 D2 E2 C2 |[M:3/4] x6 |] %17
V:3
 (B,A,) |[M:4/4] G,2 G,2 G,2 F,2 | G,2 G,2 F,2 G,C | B,2 D2 C2 G,2 | G,4 F,2 G,2 | %5
 G,2 G,2 G,2 F,2 | G,2 G,2 F,2 G,F, | G,2 G,2 E,2 (E,F,) | G,6 G,2 | B,2 D2 (DC) B,2 | %10
 (A,G,) F,2 G,4 | D2 DC B,2 G,2 | G,4 F,2 G,2 | G,2 G,2 A,2 C2 | (B,A,) G,2 F,2 (G,F,) | %15
 G,2 F,2 E,2 (E,F,) |[M:3/4] [E,G,]6 |] %17
V:4
 E,2 |[M:4/4] E,2 (E,D,) C,2 C,2 | B,,2 E,2 D,2 (B,,A,,) | G,,2 G,,2 A,,2 A,,2 | D,6 B,,2 | %5
 C,2 (C,B,,) A,,2 D,2 | B,,2 E,2 (D,C,) (B,,A,,) | G,,2 B,,2 C,2 A,,2 | E,6 E,2 | %9
 B,,2 B,2 (E,F,) G,2 | C,2 D,2 G,,4 | G,,2 G,,A,, B,,2 C,2 | D,6 B,,2 | C,2 (B,,A,,) A,,2 A,2 | %14
 (G,F,) E,2 D,2 (B,,A,,) | G,,2 B,,2 C,2 A,,2 |[M:3/4] E,,6 |] %17

